Yaru++/apps/scalable/lente-di-ingrandimento.svg

<svg fill="none" height="256" viewBox="0 0 256 256" width="256" xmlns="http://www.w3.org/2000/svg" xmlns:xlink="http://www.w3.org/1999/xlink">
  <linearGradient id="paint0_linear" gradientUnits="userSpaceOnUse" x1="29.8836" x2="229.884" y1="23.1748" y2="223.175">
    <stop offset="0" stop-opacity=".588235"/>
    <stop offset="1" stop-opacity=".205556"/>
  </linearGradient>
  <path d="m56.8052 16.1745c-35.2967 0-39.0946 3.6254-38.9216 38.9935v73.006 73.007c-.173 35.368 3.6249 38.993 38.9216 38.993h146.1568c35.297 0 39.89-3.638 38.922-38.993v-73.007-73.006c0-35.3685-3.625-38.9935-38.922-38.9935z" fill="#000" opacity=".1"/>
  <path d="m56.8052 16.1748c-35.2967 0-39.0946 3.6254-38.9216 38.9935v73.0067 73.006c-.173 35.368 3.6249 38.994 38.9216 38.994h146.1568c35.297 0 39.89-3.638 38.922-38.994v-73.006-73.0067c0-35.3685-3.625-38.9935-38.922-38.9935z" fill="url(#paint0_linear)" opacity=".3"/>
  <path d="m55.6951 13.1745c-36.0988 0-39.983 3.6901-39.806 39.6898v74.3097 74.311c-.177 35.999 3.7072 39.689 39.806 39.689h148.3869c36.099 0 40.775-3.702 39.807-39.689v-74.311-74.3097c0-36.0001-3.708-39.6898-39.807-39.6898z" fill="#000" opacity=".2"/>
  <path d="m202.957 15.1745c35.296 0 39.094 3.6254 38.921 38.9935v73.006 73.007c.173 35.368-3.625 38.993-38.921 38.993h-146.1572c-35.2967 0-38.9216-3.625-38.9216-38.993v-73.007-73.006c0-35.3685 3.6249-38.9935 38.9216-38.9935z" fill="#37a6e6"/>
  <path d="m56.8108 239.174c-35.2967 0-39.0948-3.626-38.9219-38.994v-2c-.1729 35.368 3.6252 38.994 38.9219 38.994h146.1562c35.297 0 38.922-3.625 38.922-38.994v2c0 35.369-3.625 38.994-38.922 38.994z" fill="#000" opacity=".2"/>
  <path d="m205.024 203.048-16.191-16.192" stroke="#888" stroke-width="12"/>
  <path d="m207.26 190.019 42.503 42.502-15.266 15.264-42.503-42.502z" fill="#3b3b3b"/>
  <g fill="#fff">
    <path d="m129.676 208.353c44.661 0 80.866-36.205 80.866-80.866 0-44.6615-36.205-80.8665-80.866-80.8665-44.6611 0-80.8661 36.205-80.8661 80.8665 0 44.661 36.205 80.866 80.8661 80.866z" fill-opacity=".19" stroke="#666" stroke-width="8.13559"/>
    <path d="m56.8055 15.1745c-35.2968 0-39.0949 3.626-38.9219 38.9941v2c-.173-35.3681 3.6251-38.9941 38.9219-38.9941h146.1565c35.296 0 38.922 3.6256 38.922 38.9941v-2c0-35.3685-3.626-38.9941-38.922-38.9941z" opacity=".3"/>
  </g>
</svg>

<svg width="256" height="256" viewBox="0 0 256 256" fill="none" xmlns="http://www.w3.org/2000/svg">
<path opacity="0.1" d="M56.8052 16.1745C21.5085 16.1745 17.7106 19.7999 17.8836 55.168V128.174V201.181C17.7106 236.549 21.5085 240.174 56.8052 240.174H202.962C238.259 240.174 242.852 236.536 241.884 201.181V128.174V55.168C241.884 19.7995 238.259 16.1745 202.962 16.1745H56.8052Z" fill="black"/>
<path opacity="0.3" d="M56.8052 16.1748C21.5085 16.1748 17.7106 19.8002 17.8836 55.1683V128.175V201.181C17.7106 236.549 21.5085 240.175 56.8052 240.175H202.962C238.259 240.175 242.852 236.537 241.884 201.181V128.175V55.1683C241.884 19.7998 238.259 16.1748 202.962 16.1748H56.8052Z" fill="url(#paint0_linear)"/>
<path opacity="0.2" d="M55.6951 13.1745C19.5963 13.1745 15.7121 16.8646 15.8891 52.8643V127.174V201.485C15.7121 237.484 19.5963 241.174 55.6951 241.174H204.082C240.181 241.174 244.857 237.472 243.889 201.485V127.174V52.8643C243.889 16.8642 240.181 13.1745 204.082 13.1745H55.6951Z" fill="black"/>
<path d="M202.957 15.1745C238.253 15.1745 242.051 18.7999 241.878 54.168V127.174V200.181C242.051 235.549 238.253 239.174 202.957 239.174H56.7998C21.5031 239.174 17.8782 235.549 17.8782 200.181V127.174V54.168C17.8782 18.7995 21.5031 15.1745 56.7998 15.1745H202.957Z" fill="#37A6E6"/>
<path opacity="0.2" d="M56.8108 239.174C21.5141 239.174 17.716 235.548 17.8889 200.18V198.18C17.716 233.548 21.5141 237.174 56.8108 237.174H202.967C238.264 237.174 241.889 233.549 241.889 198.18V200.18C241.889 235.549 238.264 239.174 202.967 239.174H56.8108Z" fill="black"/>
<path d="M205.024 203.048L188.833 186.856" stroke="#888888" stroke-width="12"/>
<path d="M207.26 190.019L249.763 232.521L234.497 247.785L191.994 205.283L207.26 190.019Z" fill="#3B3B3B"/>
<path d="M129.676 208.353C174.337 208.353 210.542 172.148 210.542 127.487C210.542 82.8255 174.337 46.6205 129.676 46.6205C85.0149 46.6205 48.8099 82.8255 48.8099 127.487C48.8099 172.148 85.0149 208.353 129.676 208.353Z" fill="white" fill-opacity="0.19" stroke="#666666" stroke-width="8.13559"/>
<path opacity="0.3" d="M56.8055 15.1745C21.5087 15.1745 17.7106 18.8005 17.8836 54.1686V56.1686C17.7106 20.8005 21.5087 17.1745 56.8055 17.1745H202.962C238.258 17.1745 241.884 20.8001 241.884 56.1686V54.1686C241.884 18.8001 238.258 15.1745 202.962 15.1745H56.8055Z" fill="white"/>
<defs>
<linearGradient id="paint0_linear" x1="29.8836" y1="23.1748" x2="229.884" y2="223.175" gradientUnits="userSpaceOnUse">
<stop stop-opacity="0.588235"/>
<stop offset="1" stop-opacity="0.205556"/>
</linearGradient>
</defs>
</svg>
